X:5826
T:Schottisch fr Hans Hermann
O:england
C:Stephan Steiner
R:Scottish
M:4/4
L:1/8
K:Gmix
B2 AG B2 A(G|G)ABd g2 fe|f2 ec fdA(G|G)FAc fdAc|
Bc/B/ AG BcAB|GABd fagf|1 ecG(d d)_BG(c|c)AGc AFdA:|2 ecG(d d)_BG(c|c)AGc FdGf||
|:g2 ag fg/f/ed|ef/e/dc dGdg|fA{c}Ag A{c}AfA|{c}AeA{c}A fef^f|
g3 a/g/ fgag|efe/d/c f3 d|1 ecG(d d)_BG(c|c)AGc FdGf:|2 ecG(d d)_BG(c|c)AGc AFdA||
